X: 29480
T: Night We Reversed The Curse, The
R: jig
M: 6/8
K: Dmajor
D2F G2F-|FDD G2F-|F2A cdA|cde BAG|
[1 B2A D2B|c2A E2c|DAD BcD|cde EDC:|
[2 ~B3 BAG|AFD d3-|dAG AFD|~E3 EDC||
d2f fed|=c2g gfe|f2d B2A|BAd EDC|
[1 DAd a2f|a2f fed|=c2g gfe|f2d B2A:|
[2 DFG A2F|A2F FED|B,2E B2A|Bcd EDC||

